src/assets/icons/months,simple,september-9.svg

<svg width="48" height="48" viewBox="0 0 48 48" fill="none" xmlns="http://www.w3.org/2000/svg">
<rect opacity="0.2" x="5" y="5" width="38" height="38" rx="4" fill="black"/>
<path d="M5 13C5 9.22876 5 7.34315 6.17157 6.17157C7.34315 5 9.22876 5 13 5H35C38.7712 5 40.6569 5 41.8284 6.17157C43 7.34315 43 9.22876 43 13V15H5V13Z" fill="black"/>
<path d="M16.0036 26.7102H18.3615C18.3274 24.6364 16.6229 23.2045 14.032 23.2045C11.4808 23.2045 9.61151 24.6136 9.62287 26.7273C9.61719 28.4432 10.8274 29.4261 12.7933 29.8977L14.0604 30.2159C15.3274 30.5227 16.032 30.8864 16.0376 31.6705C16.032 32.5227 15.2251 33.1023 13.9751 33.1023C12.6967 33.1023 11.7763 32.5114 11.6967 31.3466H9.31605C9.37855 33.8636 11.1797 35.1648 14.0036 35.1648C16.8445 35.1648 18.5149 33.8068 18.5206 31.6761C18.5149 29.7386 17.0547 28.7102 15.032 28.2557L13.9865 28.0057C12.9751 27.7727 12.1286 27.3977 12.1456 26.5625C12.1456 25.8125 12.8104 25.2614 14.0149 25.2614C15.1911 25.2614 15.9126 25.7955 16.0036 26.7102ZM20.1754 35H28.0391V32.9716H22.6357V30.1932H27.6129V28.1648H22.6357V25.392H28.0163V23.3636H20.1754V35ZM29.9723 35H32.4325V31.2273H34.5007C37.1768 31.2273 38.7337 29.6307 38.7337 27.3068C38.7337 24.9943 37.2053 23.3636 34.5632 23.3636H29.9723V35ZM32.4325 29.2557V25.375H34.0916C35.5121 25.375 36.1996 26.1477 36.1996 27.3068C36.1996 28.4602 35.5121 29.2557 34.103 29.2557H32.4325Z" fill="black"/>
</svg>

<svg xmlns="http://www.w3.org/2000/svg" width="48" height="48" fill="none" viewBox="0 0 48 48">
  <rect width="38" height="38" x="5" y="5" fill="#000" opacity=".2" rx="4"/>
  <path fill="#000" d="M5 13c0-3.771 0-5.657 1.172-6.828C7.343 5 9.229 5 13 5h22c3.771 0 5.657 0 6.828 1.172C43 7.343 43 9.229 43 13v2H5v-2zM16.004 26.71h2.357c-.034-2.074-1.738-3.506-4.329-3.506-2.551 0-4.42 1.41-4.41 3.523-.005 1.716 1.205 2.7 3.171 3.17l1.267.319c1.267.307 1.972.67 1.978 1.454-.006.853-.813 1.432-2.063 1.432-1.278 0-2.199-.59-2.278-1.755h-2.38c.062 2.517 1.863 3.818 4.687 3.818 2.84 0 4.51-1.358 4.517-3.489-.006-1.937-1.466-2.966-3.489-3.42l-1.046-.25c-1.01-.233-1.857-.608-1.84-1.444 0-.75.664-1.3 1.869-1.3 1.176 0 1.898.534 1.989 1.448zM20.175 35h7.864v-2.028h-5.403v-2.779h4.977v-2.028h-4.977v-2.773h5.38v-2.028h-7.84V35zm9.797 0h2.46v-3.773h2.069c2.676 0 4.233-1.596 4.233-3.92 0-2.313-1.529-3.943-4.17-3.943h-4.592V35zm2.46-5.744v-3.881h1.66c1.42 0 2.108.773 2.108 1.932 0 1.153-.688 1.949-2.097 1.949h-1.67z"/>
</svg>
